svgs/crosswords.svg

<svg xmlns="http://www.w3.org/2000/svg" viewBox="0 0 192 192"><path d="M16.5 16.5h104.171v52.086m-52.085 52.085H16.5V16.5m54.827 54.827H175.5V175.5H71.327ZM60.362 27.465 27.465 71.053m32.897 0L27.465 27.465" fill="none" stroke="#000" stroke-width="8" stroke-linecap="round" stroke-linejoin="round"/><path d="m136.57 82.291-13.979 43.588-13.158-43.588-13.983 43.588-13.159-43.588m83.067 82.242v-21.929l-11.787 14.804H168.1" fill="none" stroke="#000" stroke-width="6" stroke-linecap="round" stroke-linejoin="round"/></svg>

<svg
    xmlns="http://www.w3.org/2000/svg"
    viewBox="0 0 192 192"
    id="vector">
    <path
        id="path"
        d="M 16.5 16.5 L 120.671 16.5 L 120.671 68.586 M 68.586 120.671 L 16.5 120.671 L 16.5 16.5 M 71.327 71.327 L 175.5 71.327 L 175.5 175.5 L 71.327 175.5 Z M 60.362 27.465 L 27.465 71.053 M 60.362 71.053 L 27.465 27.465"
        fill="none"
        stroke="#000000"
        stroke-width="8"
        stroke-linecap="round"
        stroke-linejoin="round"/>
    <path
        id="path_1"
        d="M 136.57 82.291 L 122.591 125.879 L 109.433 82.291 L 95.45 125.879 L 82.291 82.291 M 165.358 164.533 L 165.358 142.604 L 153.571 157.408 L 168.1 157.408"
        fill="none"
        stroke="#000000"
        stroke-width="6"
        stroke-linecap="round"
        stroke-linejoin="round"/>
</svg>
